icon-themes/elementary_svg/cmd/sc_duplicateslide.svg

<svg height="16" width="16" xmlns="http://www.w3.org/2000/svg" xmlns:xlink="http://www.w3.org/1999/xlink"><radialGradient id="a" cx="24.837" cy="36.421" gradientTransform="matrix(-.2557 0 0 -.17604 13.353 17.657)" gradientUnits="userSpaceOnUse" r="15.645"><stop offset="0"/><stop offset="1" stop-opacity="0"/></radialGradient><linearGradient id="b" gradientTransform="matrix(.1892 0 0 .24324 5.46 3.162)" gradientUnits="userSpaceOnUse" x1="-1.846" x2="43.258" y1="21.746" y2="20.736"><stop offset="0" stop-color="#fff"/><stop offset=".461" stop-color="#fff" stop-opacity=".235"/><stop offset="1" stop-color="#fff" stop-opacity=".157"/><stop offset="1" stop-color="#fff" stop-opacity=".392"/></linearGradient><linearGradient id="c" gradientTransform="matrix(.25714 0 0 .239 3.83 2.897)" gradientUnits="userSpaceOnUse" x1="2.326" x2="40.82" y1="20.132" y2="19.641"><stop offset="0" stop-color="#f4f4f4"/><stop offset="1" stop-color="#dbdbdb"/></linearGradient><linearGradient id="d" gradientTransform="matrix(.20764 0 0 .22368 19.106 2.63)" gradientUnits="userSpaceOnUse" x1="-22.238" x2="-70.397" y1="28.054" y2="29.124"><stop offset="0" stop-color="#a0a0a0"/><stop offset="1" stop-color="#bebebe"/></linearGradient><linearGradient id="e" gradientTransform="matrix(.26424 0 0 -.2351 .152 12.577)" gradientUnits="userSpaceOnUse" x1="25.469" x2="25.469" y1="32.841" y2="2.724"><stop offset="0" stop-color="#90dbec"/><stop offset=".262" stop-color="#55c1ec"/><stop offset=".705" stop-color="#3689e6"/><stop offset="1" stop-color="#2b63a0"/></linearGradient><linearGradient id="f" gradientUnits="userSpaceOnUse" x1="5.833" x2="5.594" y1="2.532" y2="13.295"><stop offset="0" stop-color="#fff"/><stop offset=".45" stop-color="#fff" stop-opacity=".235"/><stop offset=".65" stop-color="#fff" stop-opacity=".157"/><stop offset="1" stop-color="#fff" stop-opacity=".392"/></linearGradient><linearGradient id="g" gradientUnits="userSpaceOnUse" x1="-1.148" x2="-1.148" xlink:href="#h" y1="3.515" y2="15.475"/><linearGradient id="h"><stop offset="0" stop-color="#ffa154"/><stop offset="1" stop-color="#f37329"/></linearGradient><linearGradient id="i" gradientTransform="matrix(.22297 0 0 .27027 .274 2.014)" gradientUnits="userSpaceOnUse" x1="11.003" x2="11.003" y1="7.35" y2="40.65"><stop offset="0" stop-color="#fff"/><stop offset="0" stop-color="#fff" stop-opacity=".235"/><stop offset="1" stop-color="#fff" stop-opacity=".157"/><stop offset="1" stop-color="#fff" stop-opacity=".392"/></linearGradient><linearGradient id="j" gradientUnits="userSpaceOnUse" x1="2.106" x2="2.106" xlink:href="#h" y1="2.532" y2="14.492"/><path d="m5.5 3.5h9v11h-9z" fill="url(#c)" stroke="url(#d)" stroke-linejoin="round" transform="matrix(0 1 -1 0 15 -3.996)"/><path d="m13.5 13.5h-7v-9h7z" fill="none" stroke="url(#b)" stroke-linecap="round" transform="matrix(0 1 -1 0 15 -3.996)"/><path d="m10.746 9.983c0 3.044-4.008 4.152-5.573 1.543-1.564-2.61 1.3-5.623 3.986-4.19l-1.414 2.648z" fill="url(#g)" opacity=".5" transform="translate(0 -3.996)"/><path d="m10.746 9.992c0 1.3-.946 2.544-2.2 2.89-1.253.348-2.704-.232-3.373-1.348-.005.005 2.573-1.542 2.573-1.542z" fill="url(#g)" opacity=".5" transform="translate(0 -3.996)"/><path d="m3 14.5h-2.5c.002-3.655.002-8.53 0-9.008h2.5" fill="url(#j)" transform="translate(0 -3.996)"/><path d="m3 10.504h-2.376c-.233-.142-.056-.424-.11-.625v-8.316l.03-.048.08-.02h2.376" fill="none" opacity=".4" stroke="#cc3b02" stroke-linejoin="round"/><path d="m2.5 13.5h-1v-7.008h1" fill="none" opacity=".5" stroke="url(#i)" stroke-linecap="square" transform="translate(0 -3.996)"/><path d="m10.746 9.982c0 1.3-.946 2.544-2.2 2.89-.03-.004-.8-2.89-.8-2.89z" fill="url(#g)" transform="translate(0 -3.996)"/><path d="m5.5 3.5h9v11h-9z" fill="url(#c)" stroke="url(#d)" stroke-linejoin="round" transform="matrix(0 1 -1 0 19 0)"/><path d="m13.5 13.5h-7v-9h7z" fill="none" stroke="url(#b)" stroke-linecap="round" transform="matrix(0 1 -1 0 19 0)"/><path d="m10.746 9.983c0 3.044-4.008 4.152-5.573 1.543-1.564-2.61 1.3-5.623 3.986-4.19l-1.414 2.648z" fill="url(#g)" opacity=".5" transform="translate(4)"/><path d="m10.746 9.992c0 1.3-.946 2.544-2.2 2.89-1.253.348-2.704-.232-3.373-1.348-.005.005 2.573-1.542 2.573-1.542z" fill="url(#g)" opacity=".5" transform="translate(4)"/><path d="m3 14.5h-2.5c.002-3.655.002-8.53 0-9.008h2.5" fill="url(#j)" transform="translate(4)"/><path d="m7 14.5h-2.376c-.233-.142-.056-.424-.11-.625v-8.315l.03-.048.08-.02h2.376" fill="none" opacity=".4" stroke="#cc3b02" stroke-linejoin="round"/><path d="m2.5 13.5h-1v-7.008h1" fill="none" opacity=".5" stroke="url(#i)" stroke-linecap="square" transform="translate(4)"/><path d="m10.746 9.982c0 1.3-.946 2.544-2.2 2.89-.03-.004-.8-2.89-.8-2.89z" fill="url(#g)" transform="translate(4)"/><path d="m4.197 3.48c-3.355 2.167-1.34 6.32 2.08 6.32v1.72l4.25-3.216-4.25-3.006v1.8c-2.413.09-3.467-2.106-1.743-3.617z" display="block" fill="url(#e)" transform="translate(1 2)"/><g fill="none"><path d="m5.15 5.407c-3.415 2.205-1.364 6.433 2.117 6.433v1.753l4.326-3.274-4.326-3.063v1.834c-2.456.092-3.53-2.144-1.774-3.683z" stroke="#2f78c8" stroke-linecap="round" stroke-linejoin="round" stroke-width=".815"/><path d="m6.983 10.12 2.39-1.78-2.373-1.697-.034 1.068c-1.806.423-3.6-.592-3.88-1.78.074 2.726 2.144 3.346 3.914 3.205z" stroke="url(#f)" stroke-width=".6" transform="translate(1 2)"/></g><path d="m3.003 11.246a4 2.754 0 1 1 8 0 4 2.754 0 0 1 -8 0z" fill="url(#a)" fill-rule="evenodd" opacity=".141"/></svg>

<svg xmlns="http://www.w3.org/2000/svg" xmlns:xlink="http://www.w3.org/1999/xlink" height="16" width="16"><defs><radialGradient gradientTransform="matrix(-.2557 0 0 -.17604 13.353 17.657)" gradientUnits="userSpaceOnUse" xlink:href="#a" id="D" fy="36.421" fx="24.837" r="15.645" cy="36.421" cx="24.837"/><linearGradient id="a"><stop offset="0"/><stop offset="1" stop-opacity="0"/></linearGradient><linearGradient id="c"><stop offset="0" stop-color="#fff"/><stop offset=".512" stop-color="#fff" stop-opacity=".235"/><stop offset=".585" stop-color="#fff" stop-opacity=".157"/><stop offset="1" stop-color="#fff" stop-opacity=".392"/></linearGradient><linearGradient gradientTransform="matrix(.1892 0 0 .24324 5.46 3.162)" gradientUnits="userSpaceOnUse" xlink:href="#d" id="v" y2="20.736" x2="43.258" y1="21.746" x1="-1.846"/><linearGradient id="d"><stop offset="0" stop-color="#fff"/><stop offset=".461" stop-color="#fff" stop-opacity=".235"/><stop offset="1" stop-color="#fff" stop-opacity=".157"/><stop offset="1" stop-color="#fff" stop-opacity=".392"/></linearGradient><linearGradient gradientTransform="matrix(.25714 0 0 .239 3.83 2.897)" gradientUnits="userSpaceOnUse" xlink:href="#e" id="t" y2="19.641" x2="40.82" y1="20.132" x1="2.326"/><linearGradient id="e"><stop offset="0" stop-color="#f4f4f4"/><stop offset="1" stop-color="#dbdbdb"/></linearGradient><linearGradient gradientTransform="matrix(.20764 0 0 .22368 19.106 2.63)" gradientUnits="userSpaceOnUse" xlink:href="#f" id="u" y2="29.124" x2="-70.397" y1="28.054" x1="-22.238"/><linearGradient id="f"><stop offset="0" stop-color="#a0a0a0"/><stop offset="1" stop-color="#bebebe"/></linearGradient><linearGradient id="g"><stop offset="0" stop-color="#fff"/><stop offset=".145" stop-color="#fff" stop-opacity=".235"/><stop offset="1" stop-color="#fff" stop-opacity=".157"/><stop offset="1" stop-color="#fff" stop-opacity=".392"/></linearGradient><linearGradient id="h"><stop offset="0" stop-color="#f4f4f4"/><stop offset="1" stop-color="#dbdbdb"/></linearGradient><linearGradient id="i"><stop offset="0" stop-color="#a0a0a0"/><stop offset="1" stop-color="#bebebe"/></linearGradient><linearGradient id="b"><stop offset="0" stop-color="#cdf87e"/><stop offset=".262" stop-color="#a2e34f"/><stop offset=".661" stop-color="#68b723"/><stop offset="1" stop-color="#1d7e0d"/></linearGradient><linearGradient id="B" gradientTransform="matrix(.26424 0 0 -.2351 .152 12.577)" gradientUnits="userSpaceOnUse" x1="25.469" x2="25.469" y1="32.841" y2="2.724"><stop offset="0" stop-color="#90dbec"/><stop offset=".262" stop-color="#55c1ec"/><stop offset=".705" stop-color="#3689e6"/><stop offset="1" stop-color="#2b63a0"/></linearGradient><linearGradient id="C" gradientUnits="userSpaceOnUse" x1="5.833" x2="5.594" y1="2.532" y2="13.295"><stop offset="0" stop-color="#fff"/><stop offset=".45" stop-color="#fff" stop-opacity=".235"/><stop offset=".65" stop-color="#fff" stop-opacity=".157"/><stop offset="1" stop-color="#fff" stop-opacity=".392"/></linearGradient><linearGradient xlink:href="#j" id="A" x1="2.106" y1="2.532" x2="2.106" y2="14.492" gradientUnits="userSpaceOnUse" gradientTransform="translate(-3.254 .983)"/><linearGradient id="j"><stop offset="0" stop-color="#ffa154"/><stop offset="1" stop-color="#f37329"/></linearGradient><linearGradient xlink:href="#k" id="z" gradientUnits="userSpaceOnUse" gradientTransform="matrix(.22297 0 0 .27027 .274 2.014)" x1="11.003" y1="7.35" x2="11.003" y2="40.65"/><linearGradient id="k"><stop offset="0" stop-color="#fff"/><stop offset="0" stop-color="#fff" stop-opacity=".235"/><stop offset="1" stop-color="#fff" stop-opacity=".157"/><stop offset="1" stop-color="#fff" stop-opacity=".392"/></linearGradient><linearGradient xlink:href="#j" id="w" gradientUnits="userSpaceOnUse" x1="2.106" y1="2.532" x2="2.106" y2="14.492" gradientTransform="translate(-3.254 .983)"/><linearGradient xlink:href="#j" id="x" gradientUnits="userSpaceOnUse" x1="2.106" y1="2.532" x2="2.106" y2="14.492" gradientTransform="translate(-3.254 .983)"/><linearGradient xlink:href="#j" id="y" gradientUnits="userSpaceOnUse" x1="2.106" y1="2.532" x2="2.106" y2="14.492"/><linearGradient xlink:href="#e" id="l" gradientUnits="userSpaceOnUse" gradientTransform="matrix(.25714 0 0 .239 3.83 2.897)" x1="2.326" y1="20.132" x2="40.82" y2="19.641"/><linearGradient xlink:href="#f" id="m" gradientUnits="userSpaceOnUse" gradientTransform="matrix(.20764 0 0 .22368 19.106 2.63)" x1="-22.238" y1="28.054" x2="-70.397" y2="29.124"/><linearGradient xlink:href="#d" id="n" gradientUnits="userSpaceOnUse" gradientTransform="matrix(.1892 0 0 .24324 5.46 3.162)" x1="-1.846" y1="21.746" x2="43.258" y2="20.736"/><linearGradient xlink:href="#j" id="o" gradientUnits="userSpaceOnUse" gradientTransform="translate(-3.254 .983)" x1="2.106" y1="2.532" x2="2.106" y2="14.492"/><linearGradient xlink:href="#j" id="p" gradientUnits="userSpaceOnUse" gradientTransform="translate(-3.254 .983)" x1="2.106" y1="2.532" x2="2.106" y2="14.492"/><linearGradient xlink:href="#j" id="q" gradientUnits="userSpaceOnUse" x1="2.106" y1="2.532" x2="2.106" y2="14.492"/><linearGradient xlink:href="#k" id="r" gradientUnits="userSpaceOnUse" gradientTransform="matrix(.22297 0 0 .27027 .274 2.014)" x1="11.003" y1="7.35" x2="11.003" y2="40.65"/><linearGradient xlink:href="#j" id="s" gradientUnits="userSpaceOnUse" gradientTransform="translate(-3.254 .983)" x1="2.106" y1="2.532" x2="2.106" y2="14.492"/></defs><path d="M5.5 3.5h9v11h-9v-11z" fill="url(#l)" stroke="url(#m)" stroke-linejoin="round" transform="rotate(90 9.498 5.502)"/><path d="M13.5 13.5h-7v-9h7z" fill="none" stroke="url(#n)" stroke-linecap="round" transform="rotate(90 9.498 5.502)"/><path style="isolation:auto;mix-blend-mode:normal" d="M10.746 9.983c0 3.044-4.008 4.152-5.573 1.543-1.564-2.61 1.3-5.623 3.986-4.19L7.745 9.984z" color="#000" overflow="visible" opacity=".5" solid-color="#000000" fill="url(#o)" transform="translate(0 -3.996)"/><path d="M10.746 9.992c0 1.3-.946 2.544-2.2 2.89-1.253.348-2.704-.232-3.373-1.348-.005.005 2.573-1.542 2.573-1.542z" style="isolation:auto;mix-blend-mode:normal" color="#000" overflow="visible" opacity=".5" solid-color="#000000" fill="url(#p)" transform="translate(0 -3.996)"/><path d="M3 14.5H.5c.002-3.655.002-8.53 0-9.008H3" color="#000" overflow="visible" fill="url(#q)" transform="translate(0 -3.996)"/><path d="M3 10.504H.624c-.233-.142-.056-.424-.11-.625V1.563l.03-.048.08-.02H3" color="#000" overflow="visible" opacity=".4" fill="none" stroke="#cc3b02" stroke-linejoin="round"/><path d="M2.5 13.5h-1V6.492h1" opacity=".5" fill="none" stroke="url(#r)" stroke-linecap="square" transform="translate(0 -3.996)"/><path d="M10.746 9.982c0 1.3-.946 2.544-2.2 2.89-.03-.004-.8-2.89-.8-2.89z" style="isolation:auto;mix-blend-mode:normal" color="#000" overflow="visible" solid-color="#000000" fill="url(#s)" transform="translate(0 -3.996)"/><g><path d="M5.5 3.5h9v11h-9v-11z" fill="url(#t)" stroke="url(#u)" stroke-linejoin="round" transform="rotate(90 9.5 9.5)"/><path d="M13.5 13.5h-7v-9h7z" fill="none" stroke="url(#v)" stroke-linecap="round" transform="rotate(90 9.5 9.5)"/><g><path d="M10.746 9.983c0 3.044-4.008 4.152-5.573 1.543-1.564-2.61 1.3-5.623 3.986-4.19L7.745 9.984z" style="isolation:auto;mix-blend-mode:normal" color="#000" overflow="visible" opacity=".5" solid-color="#000000" fill="url(#w)" transform="translate(4)"/><path style="isolation:auto;mix-blend-mode:normal" d="M10.746 9.992c0 1.3-.946 2.544-2.2 2.89-1.253.348-2.704-.232-3.373-1.348-.005.005 2.573-1.542 2.573-1.542z" color="#000" overflow="visible" opacity=".5" solid-color="#000000" fill="url(#x)" transform="translate(4)"/><path d="M3 14.5H.5c.002-3.655.002-8.53 0-9.008H3" color="#000" overflow="visible" fill="url(#y)" transform="translate(4)"/><path d="M7 14.5H4.624c-.233-.142-.056-.424-.11-.625V5.56l.03-.048.08-.02H7" color="#000" overflow="visible" opacity=".4" fill="none" stroke="#cc3b02" stroke-linejoin="round"/><path d="M2.5 13.5h-1V6.492h1" opacity=".5" fill="none" stroke="url(#z)" stroke-linecap="square" transform="translate(4)"/><path style="isolation:auto;mix-blend-mode:normal" d="M10.746 9.982c0 1.3-.946 2.544-2.2 2.89-.03-.004-.8-2.89-.8-2.89z" color="#000" overflow="visible" solid-color="#000000" fill="url(#A)" transform="translate(4)"/></g></g><g><path display="block" d="M4.197 3.48C.842 5.647 2.857 9.8 6.277 9.8v1.72l4.25-3.216-4.25-3.006v1.8c-2.413.09-3.467-2.106-1.743-3.617z" fill="url(#B)" transform="translate(1 2)"/><g fill="none"><path d="M5.15 5.407C1.735 7.612 3.786 11.84 7.267 11.84v1.753l4.326-3.274-4.326-3.063V9.09c-2.456.092-3.53-2.144-1.774-3.683z" stroke="#2f78c8" stroke-width=".815" stroke-linecap="round" stroke-linejoin="round"/><path d="M6.983 10.12l2.39-1.78L7 6.643l-.034 1.068c-1.806.423-3.6-.592-3.88-1.78C3.16 8.657 5.23 9.277 7 9.136z" stroke="url(#C)" stroke-width=".6" transform="translate(1 2)"/></g></g><path d="M3.003 11.246a4 2.754 0 1 1 8 0 4 2.754 0 0 1-8 0z" overflow="visible" opacity=".141" fill="url(#D)" fill-rule="evenodd"/></svg>
